X:376
T: Und als ich an denselbigen Abend gedenk (4-75), S. 96
N: P0646
O: Lothringen
S: PINCK, Louis: Verklingende Weisen Bd 4, Kassel 1939]
R: Liebe, Abschiedslied]
M: 2/2
L: 1/16
K: D
D2F2 | A4A2A2A4B2A2 | A2G2G2G2G2B2
A2G2 | F4F4F2A2G2F2 | E8z4
A2A2 | B2B2B2d2c2c2c2c2 | d2A2A2A2F4
D2D2 | B6B2A2BAG2E2 | D8z4

